X: 36107
T: Schottis Från Norrbotten
R: barndance
M: 4/4
K: Eminor
|:z/ B2|E2 E>F G2 G>A|B2 B>c B2 G2|e2 e>f g2 f2|e4- e>Be>f|
g2 (3fgf e2 B>c|d2 (3cdc B2 G>A|B>cB>A G2 A2|F4- F>Be>f|
g2 f2 e2 B>c|d2 c2 B2 G>A|B>cB>A G2 F2|E4- E3/2:|
|:d/ ^c>d|B>GE>G B>GE>G|B2 (3efe d2 c2|B>cB>A G2 A2|B4- B>d^c>d|
B>GE>G B>GE>G|B2 e2 (3ded c2|B>cB>A G2 F2|E4- E3/2:|

